svgs/regular/down-from-line.svg

<svg xmlns="http://www.w3.org/2000/svg" viewBox="0 0 384 512"><!-- Font Awesome Pro 6.0.0-alpha2 by @fontawesome - https://fontawesome.com License - https://fontawesome.com/license (Commercial License) --><path d="M314.914 240H272V176C272 149.492 250.51 128 224 128H160C133.49 128 112 149.492 112 176V240H68.713C27.082 240 5.189 289.371 33.137 320.227L169.375 470.625C175.625 476.875 183.812 480 192 480S208.375 476.875 214.625 470.625L350.533 320.176C378.418 289.309 356.512 240 314.914 240ZM192 425.367L70.633 288H160V176H224V288H313.367L192 425.367ZM360 32H24C10.75 32 0 42.75 0 56S10.75 80 24 80H360C373.25 80 384 69.25 384 56S373.25 32 360 32Z"/></svg>

<svg xmlns="http://www.w3.org/2000/svg" viewBox="0 0 384 512"><!--! Font Awesome Pro 6.0.0-alpha3 by @fontawesome - https://fontawesome.com License - https://fontawesome.com/license (Commercial License) --><path d="M314.9 240H272v-64c0-26.51-21.49-47.95-48-47.95H160c-26.51 0-48 21.44-48 47.95v64H68.71c-41.63 0-63.52 49.37-35.58 80.23l136.2 150.4C175.6 476.9 183.8 480 192 480s16.38-3.125 22.62-9.375l135.9-150.4C378.4 289.3 356.5 240 314.9 240zM192 425.4L70.63 288H160V176h64V288h89.37L192 425.4zM360 32H24C10.75 32 0 42.75 0 56S10.75 80 24 80h336C373.3 80 384 69.25 384 56S373.3 32 360 32z"/></svg>
